X:2601
T:Barber's Pole, The
R:Hornpipe
C:James Hill 1850
O:England, Tyneside
Z:Paul Hardy's Annex Tunebook 2015 (see www.paulhardy.net). Creative Commons cc by-nc-sa licenced.
M:4/4
L:1/8
Q:1/4=140
K:G
DF|"G"GABc "D"d2 ef|"G"gdba g2 df|gdBg "A"ecAG|"D"FAd^c ed=cA|
"G"GABc "D"d2 ef|"G"gdba g2 df|gdBg "Am"ecEF|"G"A2 G2 G2:|
|:df|"G"gdBd gbag|"D"fg "Am"ef "G"d2 cB|"Am"ceac "G"BdgB|"A7"AGFE "D"D2 EF|
"G"GABc "D"d2 ef|"G"gdba g2 df|gdBg "Am"ecEF|"G"A2 G2 G2:|

